X:1
T: Clog Hornpipe
C:
R:Reel
Q: 232
K:Em
M:4/4
L:1/8
|:d'2|bg fg dg fg|dg fg dg fg|bg fg dg fg|ad'^c'd' e'd' =c'a|
bg fg dg fg|dg fg dg fg|ee' d'c' ba gf|g2 b2 g2 zf|
e^d ef gf gf|e2 e'2 b4|ac' ba gb ag|fa gf e2 B2|
e^d ef gf gf|e2 e'2 b4|ac' ba gb ag|fa gf e2:|
